lib/healthicons/icons/solid/body/kidneys.svg

<svg fill="none" height="48" viewBox="0 0 48 48" width="48" xmlns="http://www.w3.org/2000/svg"><g fill="#333"><path d="m12.548 30.7532c-10.86423-4.5822-6.57663-20.049.965-22.60455 3.1286-1.06013 6.5808 2.45695 6.5587 4.64065-.0096.9442-.4968 1.8648-1.0044 2.8239-.6664 1.2593-1.368 2.585-1.0701 4.1176.5249 2.7001 1.1128 7.256-.402 9.4186-1.5149 2.1626-3.0383 2.4511-5.0472 1.6038z"/><path d="m34.3473 8.14865c7.5417 2.55555 11.8293 18.02235.9651 22.60455-2.009.8473-3.5324.5588-5.0472-1.6038s-.9269-6.7185-.4021-9.4186c.2979-1.5326-.4036-2.8583-1.0701-4.1176-.5076-.9591-.9948-1.8797-1.0043-2.8239-.0221-2.1837 3.4301-5.70078 6.5586-4.64065z"/><path d="m28.6181 22.7796c.0686.9977.0692.9976.0698.9976l.0012-.0001.0022-.0002.0039-.0003.0055-.0004.0029-.0003c-.0017.0002-.0102.0012-.0245.0035-.0287.0046-.079.0142-.1434.0324-.1311.0372-.3039.1052-.4731.2258-.2897.2063-.7157.6645-.7157 1.8207v14.4661c0 .0001 0 .0001-1 .0001s-1-.0004-1-.0005v-14.4657c0-1.7664.7096-2.8475 1.5555-3.4499.3986-.2838.7936-.4374 1.0883-.5209.1486-.0421.2758-.0675.3712-.0828.0478-.0077.0882-.0129.1197-.0164.0158-.0018.0295-.0032.0408-.0042l.0153-.0013.0064-.0004.0028-.0002.0013-.0001c.0007-.0001.0013-.0001.0699.9975z"/><path d="m19.2423 22.7796c-.0686.9977-.0693.9976-.0699.9976l-.0011-.0001-.0023-.0002-.0038-.0003-.0056-.0004c-.0019-.0002-.0029-.0003-.0031-.0003.0017.0002.0105.0012.0247.0035.0288.0046.0791.0142.1434.0324.1311.0372.3039.1052.4732.2258.2897.2063.7157.6645.7157 1.8207v14.4661c0 .0001 0 .0001 1 .0001s1-.0004 1-.0005v-14.4657c0-1.7664-.7097-2.8475-1.5556-3.4499-.3985-.2838-.7935-.4374-1.0883-.5209-.1485-.0421-.2757-.0675-.3711-.0828-.0479-.0077-.0882-.0129-.1198-.0164-.0158-.0018-.0294-.0032-.0408-.0042l-.0153-.0013-.0063-.0004-.0028-.0002-.0014-.0001c-.0006-.0001-.0013-.0001-.0698.9975z"/></g></svg>

<svg width="48" height="48" viewBox="0 0 48 48" fill="none" xmlns="http://www.w3.org/2000/svg">
<path d="M12.548 30.7532C1.68377 26.171 5.97137 10.7042 13.513 8.14865C16.6416 7.08852 20.0938 10.6056 20.0717 12.7893C20.0621 13.7335 19.5749 14.6541 19.0673 15.6132C18.4009 16.8725 17.6993 18.1982 17.9972 19.7308C18.5221 22.4309 19.11 26.9868 17.5952 29.1494C16.0803 31.312 14.5569 31.6005 12.548 30.7532Z" fill="#333333"/>
<path d="M34.3473 8.14865C41.889 10.7042 46.1766 26.171 35.3124 30.7532C33.3034 31.6005 31.78 31.312 30.2652 29.1494C28.7504 26.9868 29.3383 22.4309 29.8631 19.7308C30.161 18.1982 29.4595 16.8725 28.793 15.6132C28.2854 14.6541 27.7982 13.7335 27.7887 12.7893C27.7666 10.6056 31.2188 7.08852 34.3473 8.14865Z" fill="#333333"/>
<path d="M28.6181 22.7796C28.6867 23.7773 28.6873 23.7772 28.6879 23.7772L28.6891 23.7771L28.6913 23.7769L28.6952 23.7766L28.7007 23.7762L28.7036 23.7759C28.7019 23.7761 28.6934 23.7771 28.6791 23.7794C28.6504 23.784 28.6001 23.7936 28.5357 23.8118C28.4046 23.849 28.2318 23.917 28.0626 24.0376C27.7729 24.2439 27.3469 24.7021 27.3469 25.8583V40.3244C27.3469 40.3245 27.3469 40.3245 26.3469 40.3245C25.3469 40.3245 25.3469 40.3241 25.3469 40.324V25.8583C25.3469 24.0919 26.0565 23.0108 26.9024 22.4084C27.301 22.1246 27.696 21.971 27.9907 21.8875C28.1393 21.8454 28.2665 21.82 28.3619 21.8047C28.4097 21.797 28.4501 21.7918 28.4816 21.7883C28.4974 21.7865 28.5111 21.7851 28.5224 21.7841L28.5377 21.7828L28.5441 21.7824L28.5469 21.7822L28.5482 21.7821C28.5489 21.782 28.5495 21.782 28.6181 22.7796Z" fill="#333333"/>
<path d="M19.2423 22.7796C19.1737 23.7773 19.173 23.7772 19.1724 23.7772L19.1713 23.7771L19.169 23.7769L19.1652 23.7766L19.1596 23.7762C19.1577 23.776 19.1567 23.7759 19.1565 23.7759C19.1582 23.7761 19.167 23.7771 19.1812 23.7794C19.21 23.784 19.2603 23.7936 19.3246 23.8118C19.4557 23.849 19.6285 23.917 19.7978 24.0376C20.0875 24.2439 20.5135 24.7021 20.5135 25.8583V40.3244C20.5135 40.3245 20.5135 40.3245 21.5135 40.3245C22.5135 40.3245 22.5135 40.3241 22.5135 40.324V25.8583C22.5135 24.0919 21.8038 23.0108 20.9579 22.4084C20.5594 22.1246 20.1644 21.971 19.8696 21.8875C19.7211 21.8454 19.5939 21.82 19.4985 21.8047C19.4506 21.797 19.4103 21.7918 19.3787 21.7883C19.3629 21.7865 19.3493 21.7851 19.3379 21.7841L19.3226 21.7828L19.3163 21.7824L19.3135 21.7822L19.3121 21.7821C19.3115 21.782 19.3108 21.782 19.2423 22.7796Z" fill="#333333"/>
</svg>
